assets/fozzy/original.svg

<svg viewBox="0 0 24 24" xmlns="http://www.w3.org/2000/svg" fill="#F15B29"><path d="m14.494 20.48-.998-2.095 5.787-11.273c.897 1.396 1.496 3.092 1.496 4.888 0 3.99-2.594 7.382-6.285 8.48zm-1.496-20.451c-7.383-.5-13.468 5.586-12.97 12.969.5 5.786 5.188 10.475 10.974 10.973 7.383.5 13.468-5.586 12.97-12.969-.501-5.786-5.189-10.475-10.975-10.972zm-5.886 4.688c1.297-.897 2.793-1.396 4.39-1.496l-2.695 5.188zm3.491 7.383 4.19-8.38c.798.3 1.497.598 2.195 1.097l-5.088 9.976zm-7.382-.1c0-1.796.599-3.492 1.496-4.888l6.485 13.667c-4.49-.399-7.982-4.19-7.982-8.779z"/></svg>

<svg xmlns="http://www.w3.org/2000/svg" fill="#f15b29" viewBox="0 0 24 24"><path d="m14.494 20.48-.998-2.095 5.787-11.273c.897 1.396 1.496 3.092 1.496 4.888 0 3.99-2.594 7.382-6.285 8.48M12.998.029C5.615-.471-.47 5.615.028 12.998c.5 5.786 5.188 10.475 10.974 10.973 7.383.5 13.468-5.586 12.97-12.969C23.471 5.216 18.783.527 12.997.03zM7.112 4.717c1.297-.897 2.793-1.396 4.39-1.496L8.807 8.409zm3.491 7.383 4.19-8.38c.798.3 1.497.598 2.195 1.097L11.9 14.793zM3.221 12c0-1.796.599-3.492 1.496-4.888l6.485 13.667C6.712 20.38 3.22 16.589 3.22 12z"/></svg>
